assets/images/company.svg

<svg width="49" height="34" viewBox="0 0 49 34" fill="none" xmlns="http://www.w3.org/2000/svg">
<path d="M29.5105 6.47892C29.5105 9.38423 27.1553 11.7395 24.25 11.7395C21.3447 11.7395 18.9894 9.38423 18.9894 6.47892C18.9894 3.57362 21.3447 1.21835 24.25 1.21835C27.1553 1.21835 29.5105 3.57362 29.5105 6.47892Z" stroke="#009640" stroke-width="2" stroke-miterlimit="10" stroke-linecap="round" stroke-linejoin="round"/>
<path d="M30.2956 14.9443C29.7938 14.812 29.2517 14.8759 28.7929 15.1184C27.4355 15.8364 25.8924 16.2486 24.2499 16.2486C22.6074 16.2486 21.0643 15.8364 19.7069 15.1184C19.2481 14.8759 18.7059 14.812 18.2041 14.9443C15.6282 15.6234 13.7288 17.9684 13.7288 20.7576V29.7757C13.7288 31.4359 15.0746 32.7818 16.7348 32.7818H31.765C33.4252 32.7818 34.771 31.4359 34.771 29.7757V20.7576C34.771 17.9684 32.8716 15.6234 30.2956 14.9443Z" stroke="#009640" stroke-width="2" stroke-miterlimit="10" stroke-linecap="round" stroke-linejoin="round"/>
<path d="M42.2862 10.9879C42.2862 13.0631 40.6038 14.7455 38.5286 14.7455C36.4533 14.7455 34.771 13.0631 34.771 10.9879C34.771 8.91266 36.4533 7.23032 38.5286 7.23032C40.6038 7.23032 42.2862 8.91266 42.2862 10.9879Z" stroke="#009640" stroke-width="2" stroke-miterlimit="10" stroke-linecap="round" stroke-linejoin="round"/>
<path d="M37.7771 29.7757H45.2922C46.5374 29.7757 47.5467 28.7663 47.5467 27.5212V23.7636C47.5468 20.8438 45.4637 18.4159 42.7034 17.8724C42.2011 17.7735 41.6754 17.8235 41.1973 18.0069C40.368 18.3248 39.4699 18.503 38.5286 18.503C38.2748 18.503 38.0242 18.4899 37.7771 18.4648" stroke="#009640" stroke-width="2" stroke-miterlimit="10" stroke-linecap="round" stroke-linejoin="round"/>
<path d="M6.21375 10.9879C6.21375 13.0631 7.89608 14.7455 9.97133 14.7455C12.0466 14.7455 13.7289 13.0631 13.7289 10.9879C13.7289 8.91266 12.0466 7.23032 9.97133 7.23032C7.89608 7.23032 6.21375 8.91266 6.21375 10.9879Z" stroke="#009640" stroke-width="2" stroke-miterlimit="10" stroke-linecap="round" stroke-linejoin="round"/>
<path d="M10.7228 29.7757H3.20774C1.96256 29.7757 0.953247 28.7663 0.953247 27.5212V23.7636C0.953153 20.8438 3.03618 18.4159 5.79655 17.8724C6.29886 17.7735 6.82451 17.8235 7.30264 18.0069C8.13195 18.3248 9.02997 18.503 9.97131 18.503C10.2251 18.503 10.4757 18.4899 10.7228 18.4648" stroke="#009640" stroke-width="2" stroke-miterlimit="10" stroke-linecap="round" stroke-linejoin="round"/>
</svg>

<svg width="49" height="34" fill="none" xmlns="http://www.w3.org/2000/svg"><path d="M29.51 6.479a5.26 5.26 0 1 1-10.52 0 5.26 5.26 0 0 1 10.52 0ZM30.296 14.944a2.093 2.093 0 0 0-1.503.174 9.683 9.683 0 0 1-4.543 1.13 9.683 9.683 0 0 1-4.543-1.13 2.093 2.093 0 0 0-1.503-.174 6.014 6.014 0 0 0-4.475 5.814v9.018a3.006 3.006 0 0 0 3.006 3.006h15.03a3.006 3.006 0 0 0 3.006-3.006v-9.018c0-2.79-1.9-5.135-4.475-5.814ZM42.286 10.988a3.758 3.758 0 1 1-7.515 0 3.758 3.758 0 0 1 7.515 0ZM37.777 29.776h7.515a2.254 2.254 0 0 0 2.255-2.255v-3.757a6.007 6.007 0 0 0-4.844-5.892 2.743 2.743 0 0 0-1.506.135 7.436 7.436 0 0 1-3.42.458M6.214 10.988a3.758 3.758 0 1 0 7.515 0 3.758 3.758 0 0 0-7.515 0ZM10.723 29.776H3.208A2.254 2.254 0 0 1 .953 27.52v-3.757a6.007 6.007 0 0 1 4.844-5.892 2.743 2.743 0 0 1 1.506.135 7.436 7.436 0 0 0 3.42.458" stroke="#009640" stroke-width="2" stroke-miterlimit="10" stroke-linecap="round" stroke-linejoin="round"/></svg>
